src/build/icons/LineIcons/cancel.svg

<svg width="40" height="40" version="1.1" viewBox="0 -2 40 40" xmlns="http://www.w3.org/2000/svg">
 <g fill="none" fill-rule="evenodd">
  <g transform="translate(-200,-1033)" fill="#f00">
   <path d="m224.95 1046c-0.391-0.39-1.024-0.39-1.414 0l-3.536 3.54-3.536-3.54c-0.39-0.39-1.023-0.39-1.414 0-0.39 0.39-0.39 1.02 0 1.41l3.536 3.54-3.536 3.54c-0.39 0.39-0.39 1.02 0 1.41 0.391 0.39 1.024 0.39 1.414 0l3.536-3.54 3.536 3.54c0.39 0.39 1.023 0.39 1.414 0 0.39-0.39 0.39-1.02 0-1.41l-3.536-3.54 3.536-3.54c0.39-0.39 0.39-1.02 0-1.41zm9.05 16.95c0 1.1-0.896 2-2 2h-24c-1.104 0-2-0.9-2-2v-24c0-1.1 0.896-2 2-2h24c1.104 0 2 0.9 2 2v24zm-2-28h-24c-2.209 0-4 1.79-4 4v24c0 2.21 1.791 4 4 4h24c2.209 0 4-1.79 4-4v-24c0-2.21-1.791-4-4-4z"/>
  </g>
 </g>
</svg>

<svg width="40px" height="40px" viewBox="0 0 40 40" version="1.1" xmlns="http://www.w3.org/2000/svg" xmlns:xlink="http://www.w3.org/1999/xlink">
    <defs>
        <filter x="-1.7%" y="-0.9%" width="103.4%" height="101.8%" filterUnits="objectBoundingBox" id="filter-1">
            <feOffset dx="0" dy="2" in="SourceAlpha" result="shadowOffsetOuter1"></feOffset>
            <feGaussianBlur stdDeviation="2" in="shadowOffsetOuter1" result="shadowBlurOuter1"></feGaussianBlur>
            <feColorMatrix values="0 0 0 0 0   0 0 0 0 0   0 0 0 0 0  0 0 0 0.5 0" type="matrix" in="shadowBlurOuter1" result="shadowMatrixOuter1"></feColorMatrix>
            <feMerge>
                <feMergeNode in="shadowMatrixOuter1"></feMergeNode>
                <feMergeNode in="SourceGraphic"></feMergeNode>
            </feMerge>
        </filter>
    </defs>
    <g id="Page-1" stroke="none" stroke-width="1" fill="none" fill-rule="evenodd">
        <g id="Icon-Set" filter="url(#filter-1)" transform="translate(-200.000000, -1033.000000)" fill="#FFFFFE">
            <path d="M224.95,1046.05 C224.559,1045.66 223.926,1045.66 223.536,1046.05 L220,1049.59 L216.464,1046.05 C216.074,1045.66 215.441,1045.66 215.05,1046.05 C214.66,1046.44 214.66,1047.07 215.05,1047.46 L218.586,1051 L215.05,1054.54 C214.66,1054.93 214.66,1055.56 215.05,1055.95 C215.441,1056.34 216.074,1056.34 216.464,1055.95 L220,1052.41 L223.536,1055.95 C223.926,1056.34 224.559,1056.34 224.95,1055.95 C225.34,1055.56 225.34,1054.93 224.95,1054.54 L221.414,1051 L224.95,1047.46 C225.34,1047.07 225.34,1046.44 224.95,1046.05 L224.95,1046.05 Z M234,1063 C234,1064.1 233.104,1065 232,1065 L208,1065 C206.896,1065 206,1064.1 206,1063 L206,1039 C206,1037.9 206.896,1037 208,1037 L232,1037 C233.104,1037 234,1037.9 234,1039 L234,1063 L234,1063 Z M232,1035 L208,1035 C205.791,1035 204,1036.79 204,1039 L204,1063 C204,1065.21 205.791,1067 208,1067 L232,1067 C234.209,1067 236,1065.21 236,1063 L236,1039 C236,1036.79 234.209,1035 232,1035 L232,1035 Z" id="Fill-40"></path>
        </g>
    </g>
</svg>
